!! "Vale of Purple Mist I", (art song) No. 117a from Jonathan Condit,
!! 'Music of the Korean Renaissance; Songs and dances of the fifteenth century',
!! London: Cambridge University Press, 1984, ISBN 0 521 24399 8; pp.221-223
!! NOTE: The repeat between bars 13 and 36 have been expanded in this
!!       encoding.  Note also that this work has no vocal line.
!! pluck wind
!! str.
**kern	**kern
*M18/16	*M18/16
=1	=1
8.A-	{8.a-
8.A-	[4.b-
8.B-	.
4.B-	4.b-_
8.B-	8.b-}]
=2	=2
8.B-	{16b-
.	16dd-
.	16b-
8.d-	8.dd-}
8d-	[{8.dd-
16B-	.
8.d-	8.dd-]
8.B-	4.b-}
8.B-	.
=3	=3
8.e-	{16ee-
.	8dd-
8.d-	[8.b-
8.B-	8b-}]
.	[16b-
4.B-	4.b-_
8.B-	8b-]
.	[{16b-
=4	=4
8.B-	4.b-_
4.B-	.
.	8b-]
.	16ee-'}
4.B-	4.r
8.B-	8.r
=5	=5
8.B-	{8b-
.	16a-
8.d-	8.b-
8d-	8.dd-}
16B-	.
8.d-	{8.dd-
8.B-	4.b-}
8.B-	.
=6	=6
8.e-	{16dd-
.	16ee-
.	16dd-
8.d-	[8.b-
8.B-	8b-}]
.	[16b-
4.B-	4.b-_
8.B-	8.b-]
=7	=7
8.B-	{8b-
.	32ee-
.	32dd-
8.e-	[4.ee-
8.e-	.
8.d-	8ee-]
.	16dd-
8.B-	4.b-}
8.B-	.
=8	=8
8B-	{16b-
.	16dd-
16A-	16b-
8.B-	16dd-
.	16b-
.	32dd-
.	32b-
8d-	8a-
16B-	[16f
16A-	8.f}]
16F	.
16F	.
8.E-	{8.f
8F	[8.b-
16B-	.
=9	=9
8.F	8b-}]
.	[{16b-
8.B-	8.b-]
8.B-	8b-
.	16dd-
8.B-	8.b-
8.B-	8dd-
.	16b-
8.A-	8.a-}
=10	=10
8A-	{8a-
16A-	16e-
8.E-	[4.a-
8.A-	.
8F	16a-]
.	[8f
16B-	.
16B-	4.f_
8A-	.
8F	.
16B-	.
=11	=11
8.B-	4.f_
4.B-	.
.	16f}]
.	16f'
.	16r
8B-	4.r
32d-	.
32B-	.
16B-	.
8A-	.
8F	8.r
16B-	.
=12	=12
8.B-	8.r
4.B-	4.r
4.B-	4.r
8.B-	8.r
=13	=13
8.F	8.r
4.A-	{8.f
.	[8.a-
8.A-	16a-}]
.	[8a-
8.F	8.a-]
8.F	8.r
=14	=14
8.A-	{8f
.	16a-
8.A-	8f
.	[16a-
8.F	8.a-]
4.F	[4.f
8.F	8.f_
=15	=15
8.F	4.f_
8.A-	.
8.A-	16f]
.	16f'}
.	16r
4.B-	4.r
8.B-	8.r
=16	=16
8B-	{8.f
16A-	.
8.B-	[8.b-
8d-	8b-}]
16B-	16b-
16A-	{16b-
16F	16dd-
16F	16b-
8.E-	16dd-
.	16b-
.	16a-
8F	8.f}
16B-	.
=17	=17
8.d-	{8dd-
.	[16b-
8.B-	8.b-_
8.B-	8b-}]
.	16b-
8.B-	{16b-
.	16dd-
.	16b-
8.B-	8dd-
.	16b-
8.A-	8.a-}
=18	=18
8A-	{8a-
16A-	16e-
8.E-	[4.a-
8.A-	.
8F	16a-]
16B-	[8f
16B-	4.f_
8A-	.
8F	.
16B-	.
=19	=19
8.B-	4.f_
4.B-	.
.	16f}]
.	16f'
.	16r
8B-	4.r
32d-	.
32B-	.
16B-	.
8A-	.
8F	8.r
16B-	.
=20	=20
8.B-	8.r
4.B-	4.r
4.B-	4.r
8.B-	8.r
=21	=21
8.B-	{8b-
.	16ee-
8.e-	4.dd-
8.e-	.
8.e-	[4.ee-
8.d-	.
8.e-	8.ee-}]
=22	=22
8e-	{8dd-
16d-	16ff
8.B-	8ee-
.	16dd-
8d-	8b-}
16B-	[16b-
4.B-	4.b-_
8.B-	8.b-]
=23	=23
8.d-	{8dd-
.	16ee-}
8.e-	[{8.ee-
8.e-	8ee-]
.	16dd-
8e-	[4.b-
16d-	.
8.B-	.
8d-	8.b-}]
16B-	.
=24	=24
8B-	[8.b-
16A-	.
8.B-	8b-]
.	{16b-
8d-	16dd-
.	16b-
16B-	16dd-
8.A-	32b-
.	[32a-
.	8a-]
8.F	4.f}
8.E-	.
=25	=25
8.d-	16r
.	[{8dd-
8.B-	8.dd-_
8.B-	8dd-]
.	[16b-
8.B-	4.b-_
8.B-	.
8.A-	8.b-}]
=26	=26
8F	8.b-
16F	.
8.E-	8b-
.	{16b-
8F	16dd-
.	16b-
16B-	16dd-
8.A-	32b-
.	[32a-
.	8a-]
8.F	8f
.	16e-
8.E-	8.f}
=27	=27
8.E-	{16a-
.	16b-
.	32dd-
.	32b-
4.E-	8.a-
.	16f
.	16e-
.	16d-
16E-	8.e-
16D-	.
16F	.
8.E-	8d-
.	16e-'}
16D-	{16d-
8BB-	8B-}
=28	=28
8.B-	8.r
4.B-	4.r
4.B-	4.r
8.B-	8.r
=29	=29
8.A-	{16a-
.	16b-
.	16dd-
8.d-	[8.b-
8.B-	8b-}]
.	[16b-
8e-	4.b-_
16d-	.
8.B-	.
8d-	8.b-]
16B-	.
=30	=30
8B-	{8dd-
16A-	16ee-
8.B-	8dd-
.	16ee-
8d-	8dd-
16B-	[16b-
8.A-	8b-]
.	16dd-
8.F	8b-
.	16a-
8.E-	8.f}
=31	=31
8F	{8dd-
16F	[16b-
8.E-	8.b-}]
8F	{16b-
.	16dd-
16B-	16b-
8.A-	8.a-
8.F	8f
.	16e-
8.E-	8.f}
=32	=32
8.E-	{16a-
.	16b-
.	32dd-
.	32b-
4.E-	8.a-
.	16f
.	16e-
.	16d-
16E-	8.e-
16D-	.
16F	.
8.E-	8d-
.	16e-'}
16D-	{16d-
8BB-	8B-}
=33	=33
8.B-	8.r
4.B-	4.r
8.B-	8.r
8.d-	4.r
8d-	.
16B-	.
=34	=34
8.B-	8.r
8.B-	4.r
{32d-	.
32B-}	.
{32B-	.
[32A-	.
16A-}]	.
8F	8.r
16B-	.
16B-	4.r
8A-	.
8F	.
16B-	.
=35	=35
8.B-	8.r
8.d-	4.r
8.B-	.
8e-	8.r
16d-	.
8e-	4.r
16d-	.
8B-	.
32d-	.
32B-	.
=36	=36
8.B-	8.r
4.B-	4.r
4.B-	4.r
8.B-	8.r
=37	=37
8.F	8.r
4.A-	{8.f
.	[8.a-
8.A-	16a-}]
.	[8a-
8.F	8.a-]
8.F	8.r
=38	=38
8.A-	{8f
.	16a-
8.A-	8f
.	[16a-
8.F	8.a-]
4.F	[4.f
8.F	8.f_
=39	=39
8.F	4.f_
8.A-	.
8.A-	16f]
.	16f'}
.	16r
4.B-	4.r
8.B-	8.r
=40	=40
8B-	{8.f
16A-	.
8.B-	[8.b-
8d-	8b-}]
16B-	16b-
16A-	{16b-
16F	16dd-
16F	16b-
8.E-	16dd-
.	16b-
.	16a-
8F	8.f}
16B-	.
=41	=41
8.d-	{8dd-
.	[16b-
8.B-	8.b-_
8.B-	8b-}]
.	16b-
8.B-	{16b-
.	16dd-
.	16b-
8.B-	8dd-
.	16b-
8.A-	8.a-}
=42	=42
8A-	{8a-
16A-	16e-
8.E-	[4.a-
8.A-	.
8F	16a-]
16B-	[8f
16B-	4.f_
8A-	.
8F	.
16B-	.
=43	=43
8.B-	4.f_
4.B-	.
.	16f}]
.	16f'
.	16r
8B-	4.r
32d-	.
32B-	.
16B-	.
8A-	.
8F	8.r
16B-	.
=44	=44
8.B-	8.r
4.B-	4.r
4.B-	4.r
8.B-	8.r
=45	=45
8.B-	{8b-
.	16ee-
8.e-	4.dd-
8.e-	.
8.e-	[4.ee-
8.d-	.
8.e-	8.ee-}]
=46	=46
8e-	{8dd-
16d-	16ff
8.B-	8ee-
.	16dd-
8d-	8b-}
16B-	[16b-
4.B-	4.b-_
8.B-	8.b-]
=47	=47
8.d-	{8dd-
.	16ee-}
8.e-	[{8.ee-
8.e-	8ee-]
.	16dd-
8e-	[4.b-
16d-	.
8.B-	.
8d-	8.b-}]
16B-	.
=48	=48
8B-	[8.b-
16A-	.
8.B-	8b-]
.	{16b-
8d-	16dd-
.	16b-
16B-	16dd-
8.A-	32b-
.	[32a-
.	8a-]
8.F	4.f}
8.E-	.
=49	=49
8.d-	16r
.	[{8dd-
8.B-	8.dd-_
8.B-	8dd-]
.	[16b-
8.B-	4.b-_
8.B-	.
8.A-	8.b-}]
=50	=50
8F	8.b-
16F	.
8.E-	8b-
.	{16b-
8F	16dd-
.	16b-
16B-	16dd-
8.A-	32b-
.	[32a-
.	8a-]
8.F	8f
.	16e-
8.E-	8.f}
=51	=51
8.E-	{16a-
.	16b-
.	32dd-
.	32b-
4.E-	8.a-
.	16f
.	16e-
.	16d-
16E-	8.e-
16D-	.
16F	.
8.E-	8d-
.	16e-'}
16D-	{16d-
8BB-	8B-}
=52	=52
8.B-	8.r
4.B-	4.r
4.B-	4.r
8.B-	8.r
=53	=53
8.A-	{16a-
.	16b-
.	16dd-
8.d-	[8.b-
8.B-	8b-}]
.	[16b-
8e-	4.b-_
16d-	.
8.B-	.
8d-	8.b-]
16B-	.
=54	=54
8B-	{8dd-
16A-	16ee-
8.B-	8dd-
.	16ee-
8d-	8dd-
16B-	[16b-
8.A-	8b-]
.	16dd-
8.F	8b-
.	16a-
8.E-	8.f}
=55	=55
8F	{8dd-
16F	[16b-
8.E-	8.b-}]
8F	{16b-
.	16dd-
16B-	16b-
8.A-	8.a-
8.F	8f
.	16e-
8.E-	8.f}
=56	=56
8.E-	{16a-
.	16b-
.	32dd-
.	32b-
4.E-	8.a-
.	16f
.	16e-
.	16d-
16E-	8.e-
16D-	.
16F	.
8.E-	8d-
.	16e-'}
16D-	{16d-
8BB-	8B-}
=57	=57
8.B-	8.r
4.B-	4.r
8.B-	8.r
8.d-	4.r
8d-	.
16B-	.
=58	=58
8.B-	8.r
8.B-	4.r
{32d-	.
32B-}	.
{32B-	.
[32A-	.
16A-}]	.
8F	8.r
16B-	.
16B-	4.r
8A-	.
8F	.
16B-	.
=59	=59
8.B-	8.r
8.F	4.r
8.F	.
4.E-	4.r
8.E-	8.r
=60	=60
8.E-	16r
.	[{8d-
4.E-	8d-]
.	[16e-
.	8.e-]
4.D-	8d-
.	16e-'}
.	{8.d-
8.BB-	8.B-}
=61	=61
8.A-	{16a-
.	16b-
.	16dd-
8.d-	[8.b-
8.B-	8b-}]
.	[16b-
8e-	4.b-_
16d-	.
8.B-	.
8d-	8.b-]
16B-	.
=62	=62
8B-	{8dd-
16A-	16ee-
8.B-	8dd-
.	16ee-
8d-	8dd-
16B-	[16b-
8.A-	8b-]
.	16dd-
8.F	16b-
.	8a-
8.E-	8.f}
=63	=63
8F	{8dd-
16F	[16b-
8.E-	8b-]
.	16a-
8F	16b-
.	16dd-
16B-	16b-
8.A-	8.a-
8.F	8f
.	16e-
8.E-	8.f}
=64	=64
8.E-	{16a-
.	16b-
.	32dd-
.	32b-
4.E-	8.a-
.	16f
.	16e-
.	16d-
16E-	8.e-
16D-	.
16F	.
8.E-	8d-
.	16e-'}
16D-	{16d-
8BB-	8B-}
=65	=65
8.BB-	8.r
4.B-	4.r
8.B-	8.r
8.d-	4.r
8d-	.
16B-	.
=66	=66
8.B-	8.r
8.B-	4.r
{32d-	.
32B-}	.
{32B-	.
[32A-	.
16A-}]	.
8F	8.r
16B-	.
16B-	4.r
8A-	.
8F	.
16B-	.
=67	=67
8.B-	8.r
8.d-	4.r
8.B-	.
8e-	8.r
16d-	.
8e-	4.r
16d-	.
8B-	.
32d-	.
32B-	.
=68	=68
8.B-	8.r
4.B-	4.r
4.B-	4.r
8.B-	8.r
====	====
*-	*-
